CN5T1/178/aimg/rinon.svg

<svg clip-rule="evenodd" fill-rule="evenodd" stroke-linejoin="round" stroke-miterlimit="2" viewBox="0 0 65 96" xmlns="http://www.w3.org/2000/svg"><g fill-rule="nonzero" stroke="#000" transform="translate(-1100 -2302.392)"><path d="m0 13.807c-2.285.01-4.33-1.37-5.201-3.509-.996-2.45-.978-4.878.295-7.218.76-1.398 2.067-2.248 3.432-2.981.204-.109.512-.069.763-.033.604.087 1.199.243 1.804.318 1.659.205 2.425 1.354 1.891 2.952-.155.462-.397.932-.714 1.301-1.062 1.24-.973 2.6-.508 4.008.155.473.425.908.58 1.38.142.432.264.889.284 1.34.063 1.482-.791 2.373-2.28 2.441-.116.005-.23.001-.346.001" fill="#f466ba" stroke-width=".47" transform="matrix(6.6458 0 0 6.6458 1141.73 2304.25)"/><path d="m1153.08 2393.39c-8.51-3.06-15.44-8.66-19.16-15.91-6.62-12.93-6.5-25.74 1.96-38.09 5.05-7.38 13.74-11.87 22.81-15.74.99-.42 2.36-.42 3.67-.31-.18.99-.45 2.02-.8 3.08-1.03 3.07-2.64 6.19-4.75 8.64-7.05 8.24-6.46 17.28-3.37 26.64 1.03 3.14 2.82 6.03 3.85 9.17.95 2.87 1.76 5.91 1.89 8.91.26 6.25-1.93 10.92-6.1 13.61z" fill="#f287b7" stroke-width="3.13"/></g></svg>

<?xml version="1.0" encoding="UTF-8" standalone="no"?>
<!DOCTYPE svg PUBLIC "-//W3C//DTD SVG 1.1//EN" "http://www.w3.org/Graphics/SVG/1.1/DTD/svg11.dtd">
<svg width="100%" height="100%" viewBox="0 0 65 96" version="1.1" xmlns="http://www.w3.org/2000/svg" xmlns:xlink="http://www.w3.org/1999/xlink" xml:space="preserve" xmlns:serif="http://www.serif.com/" style="fill-rule:evenodd;clip-rule:evenodd;stroke-linejoin:round;stroke-miterlimit:2;">
    <g transform="matrix(1,0,0,1,-1100,-2477)">
        <g id="rinon" transform="matrix(1,0,0,1,-2.27374e-13,174.608)">
            <g transform="matrix(6.6458,0,0,6.6458,1141.73,2304.25)">
                <path d="M0,13.807C-2.285,13.817 -4.33,12.437 -5.201,10.298C-6.197,7.848 -6.179,5.42 -4.906,3.08C-4.146,1.682 -2.839,0.832 -1.474,0.099C-1.27,-0.01 -0.962,0.03 -0.711,0.066C-0.107,0.153 0.488,0.309 1.093,0.384C2.752,0.589 3.518,1.738 2.984,3.336C2.829,3.798 2.587,4.268 2.27,4.637C1.208,5.877 1.297,7.237 1.762,8.645C1.917,9.118 2.187,9.553 2.342,10.025C2.484,10.457 2.606,10.914 2.626,11.365C2.689,12.847 1.835,13.738 0.346,13.806C0.23,13.811 0.116,13.807 0,13.807" style="fill:rgb(244,102,186);fill-rule:nonzero;stroke:black;stroke-width:0.47px;"/>
            </g>
            <path d="M1153.08,2393.39C1144.57,2390.33 1137.64,2384.73 1133.92,2377.48C1127.3,2364.55 1127.42,2351.74 1135.88,2339.39C1140.93,2332.01 1149.62,2327.52 1158.69,2323.65C1159.68,2323.23 1161.05,2323.23 1162.36,2323.34C1162.18,2324.33 1161.91,2325.36 1161.56,2326.42C1160.53,2329.49 1158.92,2332.61 1156.81,2335.06C1149.76,2343.3 1150.35,2352.34 1153.44,2361.7C1154.47,2364.84 1156.26,2367.73 1157.29,2370.87C1158.24,2373.74 1159.05,2376.78 1159.18,2379.78C1159.44,2386.03 1157.25,2390.7 1153.08,2393.39Z" style="fill:rgb(242,135,183);fill-rule:nonzero;stroke:black;stroke-width:3.13px;"/>
        </g>
    </g>
</svg>
